X:1
T:Madame Cole
M:C
L:1/16
R:Air
C:"Carolan"
N:"Largo"
B:Bunting - A General Collection of the Ancient Music of Ireland (1796, No. 16)
Z:AK/Fiddler's Companion
K:C
c4 cBA2 [E4B4e4] z4|(d/e/f3) (f/e/d3) [c4e4]a4|[d4g4][c4e4]{de}[A4f4]e4|T[A8d8][^G4e4]z4|
(c3d c4B4) [E4e4]|(c3d c4B4)[E4e4]|(A3B A4) (G3A B4)|{A}G4E4E4 z4|(E4A4 A2G2)A2B2|[E8c8][E4c4]z4|
(A4d4) (d2c2)(d2e2)|{efg}[B8f8]e4 z4|(a4 e3d c4).e4|(d3c)(B3A) G4z4|(e3d c/d/e3 d3c B/c/d3)|
(c4 TB3A) A4 z4:||:(.E2.D2.C2.B,2 .A,2.B,2.C2.D2|.E4.E4.G,4.G,4)|T(c4B3c A4)A4|
(AG3)(EG3) A4z4|(c2B2A2G2) B2c2 d4|(d2c2B2A2) c2d2e4|~e4a4 a4g4|ge3d2c2 (d2c2d2e2)|
(d2e2)(d2e2) [A8e8a8]|A6B2 (c2B2c2d2)|(c2d2)(c2d2) [G8B8d8g8]|[D4G4]z4 (fe3d2c2|
B4).B4 (dc3B2A2|G4).E4 (e3d c/d/e3|d3c B/c/d3) (c2 TB3A|A8)z8:||

